X:1
T:Haec dies a 6 - Palestrina
T:James Gibb editions
T:#
%%score 1 2 3 { 4 | 5 }
L:1/8
Q:1/4=100
M:4/4
K:Eb
V:1 treble nm="Soprano I"
V:2 treble nm="Soprano II"
V:3 treble nm="Alto" snm="A"
V:4 treble-8 nm="Tenor I" snm="T"
V:5 treble-8 
V:1
!f!"^Haec dies""^G. P. da Palestrina\n(1526-94)""^moderato" B8 | !>!c8 | B2 B2 (!>!e3 d | %3
w: Haec|di-|es, quam fe\- *|
 c2) B2 (A2 B2 | cBcd e3 d | c2!>(! B4) =A2!>)! |[M:4/4] B4 z2!mf! B2 | (GFG_A B4) | (B3 A/G/ F4 | %9
w: * cit Do\- *||* * mi-|nus, haec|di\- * * * *|es, * * *|
 G6)!f! c2 | (!>!e3 d c4- | c2) G2 (B4 |"^rit."[Q:1/4=95] c6)[Q:1/4=90] c2 | %13
w: * quam|fe\- * *|* cit Do\-|* mi-|
[Q:1/4=87]!>(! (d3[Q:1/4=84] e[Q:1/4=84] f4)!>)! ||[M:3/2]!mf!"^allegro"[Q:1/4=200] !>!d8 e4 | %15
w: nus. * *|Ex- ul-|
 !>!d8 c4 | B8 =A4 | B8 B4 |[M:3/2][Q:1/4=200][Q:1/4=200][Q:1/4=200][Q:1/4=200] c4 !>!_A8 | %19
w: te- mus|et lae-|te- mur|in e-|
 G4!f! e4 e4 | e8 c4 | c8 c4 | e4 B8 |!>(! =A4 B8!>)! | G4!mf! B4 c4 | B8 _A4 | G8 F4 | G8 G4 | %28
w: a, ex- ul-|te- mus|et lae-|te- mur|in e-|a, ex- ul-|te- mus|et lae-|te- mur,|
!f! B8 B4 | B8 G4 | G8 =A4 | B8 B4 | B8 c4 | B8 A4 | G8 B4 | B8"^rit."[Q:1/4=194] B4 | %36
w: ex- ul-|te- mus|et lae-|te- mur,|ex- ul-|te- mus|et lae-|te- mur|
[Q:1/4=181] B4 B8[Q:1/4=173][Q:1/4=171][Q:1/4=170] ||[M:4/4]"^tempo Imo"[Q:1/4=100] B8 | %38
w: in e-|a.|
[M:4/4][Q:1/4=100][Q:1/4=100][Q:1/4=100][Q:1/4=100] z2!f! (B2 GABG | AB c3 B B2- | B2) =A2 B2 F2 | %41
w: Al- le\- * * *||* lu- ia, al-|
 G2 G2 (EFG_A | B4 c4 | F4) z4 | z2 B2 (GABG | AB c2) B3 c | d2 e2 c4 | d4 B4 | z4 z2 f2 | %49
w: le- lu- ia, * * *|||al- le\- * * *|* * * lu\- *||* ia,|al-|
 (defd e2) B2 | (c4 B4) | z2 B2 (GABG | AB c3 B B2- | B2) =A2 B4 |[Q:1/4=97] B4[Q:1/4=94] c4 | %55
w: le\- * * * * lu-|ia, *|al- le\- * * *||* lu- ia,|al- le-|
"^rit."[Q:1/4=90] (e3[Q:1/4=88] d[Q:1/4=86] c4) |[Q:1/4=85] !fermata!B8 |] %57
w: lu\- * *|ia.|
V:2
 z8 | z8 | z8 | z8 | z8 | z8 |[M:4/4] z4!mf! B4- | B4 !>!e4 | d8 |!f! B4 (!>!e3 d | c2 B2 (ABcd | %11
w: ||||||Haec|* di-|es,|quam fe\- *|* cit Do\- * * *|
 e3 d Bcde |"^rit." f6) f2 |!>(! f3 e d4)!>)! ||[M:3/2] z12 | z12 | z12 | z12 |[M:3/2] z12 | %19
w: |* mi-|nus. * *||||||
!f! B8 c4 | B8 A4 | G8 A4 | (B6 c2 d4) |!>(! e8 d4!>)! | e12 | e8 z4 | z12 | z12 |!f! d8 e4 | %29
w: Ex- ul-|te- mus|et lae-|te\- * *|mur in|e-|a,|||ex- ul-|
 d8 c4 | B8 c4 | d8 d4 | e8 e4 | e8 e4 | e8 d4 | e4 B4"^rit." d4 | (e6 dc d4) || %37
w: te- mus|et lae-|te- mur,|ex- ul-|te- mus|et lae-|te- mur in|e\- * * *|
[M:4/4] e4 z2!f! B2 |[M:4/4] (GFGA B2) G2 | (E3 F G4 | F8) | z4 z2 B2 | (GABG AB c2- | cB B4) =A2 | %44
w: a. Al-|le\- * * * * lu-|ia, * *||Al-|le\- * * * * * *|* * * lu-|
 B8 | z4 z2 B2 | (GABG) (AB c2) | F2 f2 e2 d2 | (c2 B4 =A2 | B8) | z4 z2 f2 | (defd e2) B2 | %52
w: ia,|al-|le\- * * * lu\- * *|ia, al- le- lu-|ia, * *||al-|le- * * * * lu-|
 (c4 F4) | z4 z2 B2 | (GABG AB c2- |"^rit." c2 B2) A4 | !fermata!G8 |] %57
w: ia, *|al-|le\- * * * * * *|* * lu-|ia.|
V:3
!f! G8 | !>!A8 | G8- | G4 E4 | !>!A6 G2 | (A2 G4 FE |[M:4/4]!>(! F4!>)! F4 | E2!mf! E2 G4 | %8
w: Haec|di-|es,|* quam|fe- cit|Do\- * * *|* mi-|nus, haec di-|
 F2 F4 (B2- | BAGF E2) G2 | A2 G2 E2 A2 | G6 F2 |"^rit." F4!>(! F4!>)! | F8 || %14
w: es, quam fe\-|* * * * * cit|Do- mi- nus quam|fe- cit|Do- mi-|nus.|
[M:3/2]!mf! !>!B8 B4 | !>!B8 G4 | G8 E4 | F4 F4 G4 |[M:3/2] E6 DC D4) | E4!f! G4 A4 | G8 F4 | %21
w: Ex- ul-|te- mus|et lae-|te- mur in|e\- * * *|a, ex- ul-|te- mus|
 E8 F4 | G8 F4 |!>(! E4 F8!>)! | E4!mf! G4 A4 | G8 F4 | E8 C4 | E8 E4 |!f! F8 G4 | F8 E4 | D8 E4 | %31
w: et lae-|te- mur|in e-|a, ex- ul-|te- mus|et lae-|te- mur,|ex- ul-|te- mus|et lae-|
 F8 F4 | G8 E4 | E8 E4 | E8 F4 | G8"^rit." F4 | E4 F8 ||[M:4/4] G8 |[M:4/4] z8 | z8 | %40
w: te- mur,|ex- ul-|te- mus|et lae-|te- mur|in e-|a.|||
 z2!f! F2 (DEFD | E2 D2 C2 B,2) | E6 C2 | z2 D2 E4 | F4 E2 G2 | F2 G2 G4 | z4 z2 F2 | (DEFD G2 FE | %48
w: Al- le\- * * *||lu- ia,|al- le-|lu- ia, al-|le- lu- ia,|al-|le\- * * * * * *|
 F2) (F3 E C2) | D2 B2 GABG | A2 A2 F4- | F4 z2 E2 | (CDEC DE F2- | FE E4) D2 | E8- |"^rit." E8 | %56
w: * lu\- * *|ia, al- le\- * * *|* lu- ia,|* al-|le\- * * * * * *|* * * lu-|ia.||
 !fermata!E8 |] %57
w: |
V:4
!f! e8 | !>!e8 | e6 B2 | (!>!e3 d c2 B2) | A6 E2 | A2 B2 (cd e2- | %6
w: Haec|di-|es, quam|fe\- * * *|cit, quam|fe- cit Do\- * *|
[M:4/4][K:treble-8] (e2!>(! dc d2)!>)! d2 | e4 z2!mf! B2 | d3 c defd | e2) B2!f! c4- | %10
w: * * * * mi-|nus, haec|di\- * * * * *|* es, quam|
 c2 !>!e3 d c2 | c2 B4 B2 |"^rit." F8 | z8 ||[M:3/2]!mf! !>!f8 g4 | !>!f8 e4 | d8 c4 | d8 e4 | %18
w: * fe\- * *|cit Do- mi-|nus.||Ex- ul-|te- mus|et lae-|te- mur|
[M:3/2][K:treble-8] e4 f8 | B8 z4 | z12 | z12 | z12 | z12 | z4!mf! e4 e4 | e8 c4 | c8 A4 | B8 B4 | %28
w: in e-|a,|||||ex- ul-|te- mus|et lae-|te- mur,|
 z12 | z12 | z12 | z12 |!f! G8 A4 | B8 c4 | B8 B4 | (G4 E4)"^rit." F4 | G4 F8 || %37
w: ||||ex- ul-|te- mus|et lae-|te\- * mur|in e-|
[M:4/4] E2!f! B2 GFGA |[M:4/4][K:treble-8] B2 G2 E4 | A4 G2 E2 | F4 B4 | z8 | z2 e2 (cdec | %43
w: a. Al- le\- * * *|* lu- ia,|al- le- lu-|ia, *||al- le\- * * *|
 de f3 e e2- | e2 d2 e2 B2 | (A2 G3 FGA | B2 G2) c4 | B8 | z2 B2 c2 f2- | fe d2) (B3 c/d/ | %50
w: |* lu- ia, al-|le\- * * * *|* * lu-|ia,|al- le- lu\-|* * * ia, * *|
 e4 z2 (B2- | Bc d2) B4 | e4 d4 | c4) z2 F2 | G2 G2 E2 A2- |"^rit." A2 G2 A4 | !fermata!B8 |] %57
w: * al\-|* * * le-|lu- ia,|* al-|le- lu- ia, al\-|* le- lu-|ia.|
V:5
!f! E8 | !>!A8 | E8 | E4 !>!A2 G2 | (FGAB cd e2- | ec d2!>(! e2) c2!>)! |[M:4/4][K:treble-8] B8 | %7
w: Haec|di-|es,|quam fe- cit|Do\- * * * * * *|* * * * mi-|nus,|
 z2!mf! B2 (GFGA | B8) | G4 z2!f! E2- | (EF G2) A4 | E2 (e4 d2 |"^rit." c6)!>(! c2!>)! | B8 || %14
w: haec di\- * * *||es quam|* * * fe-|cit Do\- *|* mi-|nus.|
[M:3/2] z12 | z12 | z12 | z12 |[M:3/2][K:treble-8] z12 | z4!f! e4 A4 | e8 f4 | c8 f4 | e8 B4 | %23
w: |||||Ex- ul-|te- mus|et lae-|te- mur|
 c4 B8 | E4 z4 z4 | z12 | z12 | z12 |!f! B8 E4 | B8 c4 | G8 c4 | B8 B4 | z4 B4 A4 | G8 E4 | G8 F4 | %35
w: in e-|a,||||ex- ul-|te- mus|et lae-|te- mur,|ex- ul-|te- mus|et lae-|
 E4 G4"^rit." B4- | B4 B8 ||[M:4/4] G3 A B4- |[M:4/4][K:treble-8] B4 z2!f! f2 | (cdec d2) e2 | %40
w: te- mur in|* e-|a. * *|* Al-|le\- * * * * lu-|
 c4 B4- | B4 z4 | z8 | z8 | z4 z2 e2 | (cdec d4) | g4 f4- | f4 z2 B2 | (c2 d2) c4 | B4 z2 e2 | %50
w: ia, *||||al-|le\- * * * *|lu- ia,|* al-|le\- * lu-|ia, al-|
 (cdec dcde | f2) F2 G4 | E4 (B3 A | G2 E2) F4 | E8- |"^rit." E8 | !fermata!E8 |] %57
w: le\- * * * * * * *|* lu- ia,|al- le\- *|* * lu-|ia.|||

